X: 21023
T: Well a Day
%R: air, strathspey
B: James Oswald "The Caledonian Pocket Companion" v.2 p.102 #3
Z: 2019 John Chambers <jc:trillian.mit.edu>
M: C
L: 1/8
K: G
"_Slow"G2 |\
(B<G) (d<B) Tg3 e | (d<B) TAG {G}A3 B |\
(cd)(ef) (ge)(dc) | B2 (c/B/A) G3 B |\
{B}A3 d (A<F)(G<E) |
{E2}F4 (G3 A/B/) |\
A3 d (A<F)(G<E) | D6 :: A2 |\
(dc)(BA) (^GB) (d=f) | (ed)(cB) {B}c3 B |
(c<A)(B<G) (F<A) c2 | TB2 AG {FG}A3 c |\
Tc4 {Bc}B2 ze | (d<B)(c<A) {A2}B4 |\
g3 (f/e/) Hd2 ze | (d<B)(c<A) G2 :|

